Flat-Remix-Light/panel/indicator-keyboard-Ff.svg

<svg xmlns="http://www.w3.org/2000/svg" width="22" height="22" version="1.1">
 <defs>
  <style id="current-color-scheme" type="text/css">
   .ColorScheme-Text { color:#31363b; } .ColorScheme-Highlight { color:#3daee9; }
  </style>
 </defs>
 <rect style="opacity:0" width="22" height="22" x="0" y="0"/>
 <path style="fill:none;stroke:currentColor;stroke-width:1.99999976;stroke-linecap:round;stroke-linejoin:bevel" class="ColorScheme-Text" d="m 5.0000007,10.999902 3.9999986,0 m -3.9999986,-4.0000025 3.9999986,0 m -3.9999003,8.0000985 0,-7.9999964"/>
 <path style="fill:none;stroke:currentColor;stroke-width:1.99999976;stroke-linecap:round;stroke-linejoin:bevel" class="ColorScheme-Text" d="m 13.000001,10.999902 3.999998,0 m -3.999998,-4.0000023 3.999998,0 m -3.9999,8.0000983 0,-7.9999962"/>
</svg>

<svg xmlns="http://www.w3.org/2000/svg" width="12pt" height="12pt" version="1.1" viewBox="0 0 12 12">
 <g>
  <path style="fill:none;stroke-width:2;stroke-linecap:round;stroke-linejoin:bevel;stroke:rgb(19.215686%,21.176471%,23.137255%)" d="M 5 11 L 9 11 M 5 7 L 9 7 M 5 15 L 5 7" transform="matrix(0.5,0,0,0.5,0.5,0.5)"/>
  <path style="fill:none;stroke-width:2;stroke-linecap:round;stroke-linejoin:bevel;stroke:rgb(19.215686%,21.176471%,23.137255%)" d="M 13 11 L 17 11 M 13 7 L 17 7 M 13 15 L 13 7" transform="matrix(0.5,0,0,0.5,0.5,0.5)"/>
 </g>
</svg>
